svg/color/krl.svg

<?xml version="1.0" encoding="UTF-8" ?>
<!DOCTYPE svg PUBLIC "-//W3C//DTD SVG 1.1//EN" "http://www.w3.org/Graphics/SVG/1.1/DTD/svg11.dtd">
<svg width="250pt" height="250pt" viewBox="0 0 250 250" version="1.1" xmlns="http://www.w3.org/2000/svg">
<g id="#fefefeff">
<path fill="#fefefe" opacity="1.00" d=" M 0.00 0.00 L 250.00 0.00 L 250.00 250.00 L 0.00 250.00 L 0.00 0.00 M 75.70 19.68 C 51.19 30.99 30.99 51.34 19.77 75.88 C 10.35 96.44 7.44 119.76 10.88 142.06 C 12.36 150.57 14.70 158.91 17.84 166.95 C 29.44 195.17 52.65 218.43 81.02 229.76 C 107.43 240.36 137.85 240.71 164.50 230.71 C 187.16 222.28 206.81 206.27 220.00 186.04 C 238.22 158.43 243.33 122.67 233.81 91.04 C 228.45 72.18 217.83 54.90 203.69 41.35 C 185.39 23.18 160.56 12.01 134.95 9.58 C 127.65 9.20 120.32 9.20 113.02 9.59 C 100.14 10.89 87.44 14.20 75.70 19.68 Z" />
<path fill="#fefefe" opacity="1.00" d=" M 73.62 44.51 C 88.01 44.39 102.40 44.50 116.79 44.45 C 116.87 66.68 116.74 88.90 116.86 111.13 C 119.00 109.92 120.35 107.81 122.00 106.06 C 131.09 96.08 139.73 85.68 148.92 75.79 C 164.36 75.81 179.79 75.80 195.23 75.81 C 195.27 76.70 195.34 78.47 195.38 79.36 C 182.57 94.22 169.70 109.02 156.80 123.80 C 156.01 124.76 154.51 126.10 155.59 127.42 C 169.03 147.01 182.42 166.63 195.78 186.27 C 197.43 188.28 197.70 191.06 196.46 193.36 C 181.24 193.15 166.02 193.28 150.81 193.30 C 142.65 181.79 135.26 169.74 127.42 158.00 C 123.75 161.45 120.65 165.44 117.19 169.08 C 117.18 177.14 117.22 185.20 117.16 193.26 C 102.66 193.25 88.17 193.28 73.67 193.24 C 73.56 183.59 73.67 173.95 73.61 164.31 C 60.83 164.30 48.05 164.35 35.27 164.28 C 38.81 152.95 42.50 141.65 46.17 130.36 L 46.80 129.94 C 55.73 129.76 64.67 129.91 73.61 129.88 C 73.63 125.64 73.64 121.40 73.60 117.17 C 65.37 117.21 57.14 117.20 48.90 117.17 C 52.45 105.78 56.11 94.42 59.78 83.07 C 64.38 83.01 68.99 82.93 73.59 83.08 C 73.66 70.22 73.61 57.37 73.62 44.51 Z" />
</g>
<g id="#8e0f7cff">
<path fill="#8e0f7c" opacity="1.00" d=" M 75.70 19.68 C 87.44 14.20 100.14 10.89 113.02 9.59 C 120.32 9.20 127.65 9.20 134.95 9.58 C 160.56 12.01 185.39 23.18 203.69 41.35 C 217.83 54.90 228.45 72.18 233.81 91.04 C 243.33 122.67 238.22 158.43 220.00 186.04 C 206.81 206.27 187.16 222.28 164.50 230.71 C 137.85 240.71 107.43 240.36 81.02 229.76 C 52.65 218.43 29.44 195.17 17.84 166.95 C 14.70 158.91 12.36 150.57 10.88 142.06 C 7.44 119.76 10.35 96.44 19.77 75.88 C 30.99 51.34 51.19 30.99 75.70 19.68 M 73.62 44.51 C 73.61 57.37 73.66 70.22 73.59 83.08 C 68.99 82.93 64.38 83.01 59.78 83.07 C 56.11 94.42 52.45 105.78 48.90 117.17 C 57.14 117.20 65.37 117.21 73.60 117.17 C 73.64 121.40 73.63 125.64 73.61 129.88 C 64.67 129.91 55.73 129.76 46.80 129.94 L 46.17 130.36 C 42.50 141.65 38.81 152.95 35.27 164.28 C 48.05 164.35 60.83 164.30 73.61 164.31 C 73.67 173.95 73.56 183.59 73.67 193.24 C 88.17 193.28 102.66 193.25 117.16 193.26 C 117.22 185.20 117.18 177.14 117.19 169.08 C 120.65 165.44 123.75 161.45 127.42 158.00 C 135.26 169.74 142.65 181.79 150.81 193.30 C 166.02 193.28 181.24 193.15 196.46 193.36 C 197.70 191.06 197.43 188.28 195.78 186.27 C 182.42 166.63 169.03 147.01 155.59 127.42 C 154.51 126.10 156.01 124.76 156.80 123.80 C 169.70 109.02 182.57 94.22 195.38 79.36 C 195.34 78.47 195.27 76.70 195.23 75.81 C 179.79 75.80 164.36 75.81 148.92 75.79 C 139.73 85.68 131.09 96.08 122.00 106.06 C 120.35 107.81 119.00 109.92 116.86 111.13 C 116.74 88.90 116.87 66.68 116.79 44.45 C 102.40 44.50 88.01 44.39 73.62 44.51 Z" />
</g>
</svg>

<?xml version="1.0" encoding="utf-8"?>
<!-- Generator: Adobe Illustrator 26.0.3, SVG Export Plug-In . SVG Version: 6.00 Build 0)  -->
<svg version="1.1" id="Layer_1" xmlns="http://www.w3.org/2000/svg" xmlns:xlink="http://www.w3.org/1999/xlink" x="0px" y="0px"
	 viewBox="0 0 250 250" style="enable-background:new 0 0 250 250;" xml:space="preserve">
<style type="text/css">
	.st0{fill:#FEFEFE;}
	.st1{fill:#8E0F7C;}
</style>
<g id="_x23_fefefeff">
	<path class="st0" d="M73.6,44.5c14.4-0.1,28.8,0,43.2-0.1c0.1,22.2-0.1,44.5,0.1,66.7c2.1-1.2,3.5-3.3,5.1-5.1
		c9.1-10,17.7-20.4,26.9-30.3c15.4,0,30.9,0,46.3,0c0,0.9,0.1,2.7,0.2,3.6c-12.8,14.9-25.7,29.7-38.6,44.4c-0.8,1-2.3,2.3-1.2,3.6
		c13.4,19.6,26.8,39.2,40.2,58.9c1.6,2,1.9,4.8,0.7,7.1c-15.2-0.2-30.4-0.1-45.7-0.1c-8.2-11.5-15.6-23.6-23.4-35.3
		c-3.7,3.4-6.8,7.4-10.2,11.1c0,8.1,0,16.1,0,24.2c-14.5,0-29,0-43.5,0c-0.1-9.7,0-19.3-0.1-28.9c-12.8,0-25.6,0-38.3,0
		c3.5-11.3,7.2-22.6,10.9-33.9l0.6-0.4c8.9-0.2,17.9,0,26.8-0.1c0-4.2,0-8.5,0-12.7c-8.2,0-16.5,0-24.7,0
		c3.5-11.4,7.2-22.8,10.9-34.1c4.6-0.1,9.2-0.1,13.8,0C73.7,70.2,73.6,57.4,73.6,44.5z"/>
</g>
<g id="_x23_8e0f7cff">
	<path class="st1" d="M75.7,19.7c11.7-5.5,24.4-8.8,37.3-10.1c7.3-0.4,14.6-0.4,21.9,0c25.6,2.4,50.4,13.6,68.7,31.8
		c14.1,13.6,24.8,30.8,30.1,49.7c9.5,31.6,4.4,67.4-13.8,95c-13.2,20.2-32.8,36.2-55.5,44.7c-26.6,10-57.1,9.6-83.5-1
		c-28.4-11.3-51.6-34.6-63.2-62.8c-3.1-8-5.5-16.4-7-24.9c-3.4-22.3-0.5-45.6,8.9-66.2C31,51.3,51.2,31,75.7,19.7 M73.6,44.5
		c0,12.9,0,25.7,0,38.6c-4.6-0.2-9.2-0.1-13.8,0c-3.7,11.3-7.3,22.7-10.9,34.1c8.2,0,16.5,0,24.7,0c0,4.2,0,8.5,0,12.7
		c-8.9,0-17.9-0.1-26.8,0.1l-0.6,0.4c-3.7,11.3-7.4,22.6-10.9,33.9c12.8,0.1,25.6,0,38.3,0c0.1,9.6-0.1,19.3,0.1,28.9
		c14.5,0,29,0,43.5,0c0.1-8.1,0-16.1,0-24.2c3.5-3.6,6.6-7.6,10.2-11.1c7.8,11.7,15.2,23.8,23.4,35.3c15.2,0,30.4-0.2,45.7,0.1
		c1.2-2.3,1-5.1-0.7-7.1c-13.4-19.6-26.8-39.3-40.2-58.9c-1.1-1.3,0.4-2.7,1.2-3.6c12.9-14.8,25.8-29.6,38.6-44.4
		c0-0.9-0.1-2.7-0.2-3.6c-15.4,0-30.9,0-46.3,0c-9.2,9.9-17.8,20.3-26.9,30.3c-1.7,1.8-3,3.9-5.1,5.1c-0.1-22.2,0-44.4-0.1-66.7
		C102.4,44.5,88,44.4,73.6,44.5z"/>
</g>
</svg>
